X:803
T:Reel 803
M:4/4
K:Dmaj
L:1/8
d>e (3fed cAAG|F>A (3ABA d2ed|cABA A>G (3ABc |dfaf dcAd|c>d (3dcd f>d (3dcd |cAGF GFED|d>e (3fed edcA| (3Bcd cA d2cA|G>E (3EDE c>d (3cdc |d>d (3dcd f>d (3dcd |c>d (3cdc d>c (3ABc |dfaf gea2|G>E (3EEE c>E (3EEE |e>d (3ddd e>d (3ddd |Abag fd (3ddd |cABG A2cd|
